X: 41054
T: Trip To Mousker
R: slide
M: 12/8
K: Amajor
|:fff fef afe ceB-|BBB BAB cBA FED|fff fef afe ceB-|BBB BEF A2B cea|
[1 fff fef afe ceB-|BBB BAB cBA FFE|DFA dea geb agf|e2c BAB z2A Bce:|
[2 fff fef afe ceB-|BBB BAB cBA FFE|DFA dcA edc ABc|BBA GFE E3- E3||
G3 A3 GFE D2G-|GAG AGA BAG FED|G3 A3 GFE DcA|B3- B3- B3 cBA|
G3 A3 GFE D2G-|GAG AGA BAG FED|G3 A3 GFG ABc|BBA GFE EFG ABc||

